svgs/duotone/calendars.svg

<svg xmlns="http://www.w3.org/2000/svg" viewBox="0 0 512 512"><!--! Font Awesome Pro 6.6.0 by @fontawesome - https://fontawesome.com License - https://fontawesome.com/license (Commercial License) Copyright 2024 Fonticons, Inc. --><path class="fa-secondary" style="fill:var(--fa-secondary-color,inherit);opacity:var(--fa-secondary-opacity,.4);" d="M96 192l416 0 0 176c0 26.5-21.5 48-48 48l-320 0c-26.5 0-48-21.5-48-48l0-176z"/><path class="fa-primary" style="fill:var(--fa-primary-color,inherit);opacity:var(--fa-primary-opacity,1);" d="M224 0c-17.7 0-32 14.3-32 32l0 32-48 0c-26.5 0-48 21.5-48 48l0 80 416 0 0-80c0-26.5-21.5-48-48-48l-48 0 0-32c0-17.7-14.3-32-32-32s-32 14.3-32 32l0 32-96 0 0-32c0-17.7-14.3-32-32-32zM48 184c0-13.3-10.7-24-24-24s-24 10.7-24 24L0 392c0 66.3 53.7 120 120 120l272 0c13.3 0 24-10.7 24-24s-10.7-24-24-24l-272 0c-39.8 0-72-32.2-72-72l0-208z"/></svg>

<svg xmlns="http://www.w3.org/2000/svg" viewBox="0 0 512 512"><!--! Font Awesome Pro 6.4.2 by @fontawesome - https://fontawesome.com License - https://fontawesome.com/license (Commercial License) Copyright 2023 Fonticons, Inc. --><path class="fa-primary" style="fill:var(--fa-primary-color,inherit);opacity:var(--fa-primary-opacity,1);" d="M224 0c-17.7 0-32 14.3-32 32V64H144c-26.5 0-48 21.5-48 48v80H512V112c0-26.5-21.5-48-48-48H416V32c0-17.7-14.3-32-32-32s-32 14.3-32 32V64H256V32c0-17.7-14.3-32-32-32zM48 184c0-13.3-10.7-24-24-24s-24 10.7-24 24V392c0 66.3 53.7 120 120 120H392c13.3 0 24-10.7 24-24s-10.7-24-24-24H120c-39.8 0-72-32.2-72-72V184z"/><path class="fa-secondary" style="fill:var(--fa-secondary-color,inherit);opacity:var(--fa-secondary-opacity,.4);" d="M96 192H512V368c0 26.5-21.5 48-48 48H144c-26.5 0-48-21.5-48-48V192z"/></svg>
